austria/municipalities/31202.svg

<?xml version="1.0" encoding="UTF-8"?>
<!DOCTYPE svg PUBLIC "-//W3C//DTD SVG 1.1//EN" "http://www.w3.org/Graphics/SVG/1.1/DTD/svg11.dtd">
<svg xmlns="http://www.w3.org/2000/svg" version="1.1" width="120px" height="124px" style="shape-rendering:geometricPrecision; text-rendering:geometricPrecision; image-rendering:optimizeQuality; fill-rule:evenodd; clip-rule:evenodd" xmlns:xlink="http://www.w3.org/1999/xlink">
<g><path style="opacity:1" fill="#bfbebe" d="M 0.5,-0.5 C 40.1667,-0.5 79.8333,-0.5 119.5,-0.5C 119.5,10.1667 119.5,20.8333 119.5,31.5C 119.167,31.5 118.833,31.5 118.5,31.5C 118.733,21.1348 118.4,10.8015 117.5,0.5C 98.1667,0.5 78.8333,0.5 59.5,0.5C 59.5,1.5 59.5,2.5 59.5,3.5C 59.1667,3.5 58.8333,3.5 58.5,3.5C 58.5,2.5 58.5,1.5 58.5,0.5C 39.5,0.5 20.5,0.5 1.5,0.5C 1.80155,3.0593 1.46822,5.39263 0.5,7.5C 0.5,4.83333 0.5,2.16667 0.5,-0.5 Z"/></g>
<g><path style="opacity:1" fill="#111110" d="M 58.5,3.5 C 56.9033,21.7894 51.4033,38.7894 42,54.5C 36.0271,62.8093 28.5271,69.3093 19.5,74C 17.5643,74.813 15.5643,75.313 13.5,75.5C 15.8454,82.3772 19.3454,88.7105 24,94.5C 25.6837,96.3513 27.5171,98.018 29.5,99.5C 30.2876,98.2299 31.2876,97.2299 32.5,96.5C 31.6765,98.4546 31.5099,100.455 32,102.5C 37.2968,107.215 42.7968,111.548 48.5,115.5C 47.5,115.5 46.5,115.5 45.5,115.5C 44.5084,115.672 43.8417,115.338 43.5,114.5C 43.0269,113.094 42.0269,112.427 40.5,112.5C 40.0269,111.094 39.0269,110.427 37.5,110.5C 34.2157,108.883 31.5491,106.55 29.5,103.5C 29.0269,102.094 28.0269,101.427 26.5,101.5C 9.69228,82.7546 0.692278,60.7546 -0.5,35.5C -0.5,27.5 -0.5,19.5 -0.5,11.5C 0.434475,10.4324 0.767809,9.09903 0.5,7.5C 1.46822,5.39263 1.80155,3.0593 1.5,0.5C 20.5,0.5 39.5,0.5 58.5,0.5C 58.5,1.5 58.5,2.5 58.5,3.5 Z"/></g>
<g><path style="opacity:1" fill="#070606" d="M 118.5,31.5 C 118.614,48.2654 115.281,64.2654 108.5,79.5C 107.833,79.5 107.5,79.1667 107.5,78.5C 107.5,77.5 107.5,76.5 107.5,75.5C 92.6757,71.1889 81.509,62.1889 74,48.5C 66.4538,34.3617 61.6204,19.3617 59.5,3.5C 59.5,2.5 59.5,1.5 59.5,0.5C 78.8333,0.5 98.1667,0.5 117.5,0.5C 118.4,10.8015 118.733,21.1348 118.5,31.5 Z"/></g>
<g><path style="opacity:1" fill="#e7e7e7" d="M 58.5,3.5 C 58.8333,3.5 59.1667,3.5 59.5,3.5C 61.6204,19.3617 66.4538,34.3617 74,48.5C 81.509,62.1889 92.6757,71.1889 107.5,75.5C 107.5,76.5 107.5,77.5 107.5,78.5C 102.354,87.4952 96.1871,95.8285 89,103.5C 88.6174,102.944 88.1174,102.611 87.5,102.5C 86.1103,101.101 85.1103,99.4341 84.5,97.5C 83.9423,96.2101 82.9423,95.3768 81.5,95C 77.8595,94.3562 74.3595,94.8562 71,96.5C 69.9889,95.9444 69.1556,95.2778 68.5,94.5C 67.6316,87.1173 63.6316,83.6173 56.5,84C 55.944,84.3826 55.6107,84.8826 55.5,85.5C 53.823,87.5398 52.1563,89.5398 50.5,91.5C 49.2876,92.2299 48.2876,93.2299 47.5,94.5C 42.9244,90.8138 38.2578,90.6471 33.5,94C 32.7476,94.6708 32.4142,95.5041 32.5,96.5C 31.2876,97.2299 30.2876,98.2299 29.5,99.5C 27.5171,98.018 25.6837,96.3513 24,94.5C 19.3454,88.7105 15.8454,82.3772 13.5,75.5C 15.5643,75.313 17.5643,74.813 19.5,74C 28.5271,69.3093 36.0271,62.8093 42,54.5C 51.4033,38.7894 56.9033,21.7894 58.5,3.5 Z"/></g>
<g><path style="opacity:1" fill="#969585" d="M 78.5,9.5 C 76.9153,8.99762 76.4153,7.99762 77,6.5C 78.0386,7.24382 78.5386,8.24382 78.5,9.5 Z"/></g>
<g><path style="opacity:1" fill="#eccb19" d="M 39.5,7.5 C 41.0281,7.51731 41.5281,8.18398 41,9.5C 38.3568,10.9763 36.1901,12.9763 34.5,15.5C 38.2743,15.1724 39.1076,16.8391 37,20.5C 32.8953,16.197 30.062,17.0303 28.5,23C 28.6301,24.0588 29.1301,24.8921 30,25.5C 31.2515,23.9991 32.2515,22.3325 33,20.5C 35.5373,23.0457 38.5373,24.7124 42,25.5C 42.91,30.6585 42.41,35.6585 40.5,40.5C 40,40.8333 39.5,41.1667 39,41.5C 37.3745,40.7113 35.8745,39.7113 34.5,38.5C 34.1667,39 33.8333,39.5 33.5,40C 34.1667,41.3333 34.8333,42.6667 35.5,44C 33.6754,46.4935 31.342,48.3268 28.5,49.5C 24.7335,46.3491 22.9002,47.3491 23,52.5C 20.088,53.7396 17.4213,55.4063 15,57.5C 10.8223,52.8752 9.98899,47.8752 12.5,42.5C 10.5988,41.7691 8.59885,41.7691 6.5,42.5C 6.24933,39.091 6.58266,35.7577 7.5,32.5C 9.62408,31.8506 11.6241,31.0173 13.5,30C 12.4366,28.8118 11.1033,28.3118 9.5,28.5C 10.5544,23.5619 13.2211,19.7286 17.5,17C 23.3968,15.1961 26.2301,17.3628 26,23.5C 27.6965,21.4404 28.8631,19.1071 29.5,16.5C 28.1551,14.6772 27.6551,12.6772 28,10.5C 28.414,10.0426 28.914,9.70931 29.5,9.5C 30.2978,11.0777 30.7978,12.7444 31,14.5C 34.0228,12.3024 36.8562,9.96904 39.5,7.5 Z"/></g>
<g><path style="opacity:1" fill="#737062" d="M 101.5,40.5 C 100.883,40.6107 100.383,40.944 100,41.5C 99.7978,39.7444 99.2978,38.0777 98.5,36.5C 97.914,36.7093 97.414,37.0426 97,37.5C 96.8078,35.4233 96.3078,33.4233 95.5,31.5C 94.8076,32.0253 94.3076,32.6919 94,33.5C 93.6667,31.1667 93.3333,28.8333 93,26.5C 90.586,30.1965 90.086,29.6965 91.5,25C 89.4131,21.6922 86.7464,18.8589 83.5,16.5C 83.2887,18.638 82.9554,20.8047 82.5,23C 83.0828,25.9152 84.7495,27.9152 87.5,29C 85.0426,30.1544 85.0426,31.4877 87.5,33C 89.3839,33.2163 91.0506,33.883 92.5,35C 90.6799,34.5241 89.0133,34.6907 87.5,35.5C 86.4036,33.8968 85.0703,32.3968 83.5,31C 84.7836,29.7025 84.6169,28.5358 83,27.5C 81.8525,28.4581 80.8525,28.1247 80,26.5C 79.7216,27.4158 79.2216,28.0825 78.5,28.5C 77.8466,27.1932 77.1799,25.8599 76.5,24.5C 76.9191,20.0806 76.9191,15.914 76.5,12C 76.6667,11.5 76.8333,11 77,10.5C 78.3333,13.1667 79.6667,15.8333 81,18.5C 81.1667,17.8333 81.3333,17.1667 81.5,16.5C 80.2326,14.2967 79.2326,11.9633 78.5,9.5C 79.8249,10.9526 80.6582,10.6192 81,8.5C 83.4302,11.386 86.0968,14.0527 89,16.5C 89.3333,16.1667 89.6667,15.8333 90,15.5C 92.3901,17.2666 94.0568,19.5999 95,22.5C 95.3173,20.6992 95.984,20.3659 97,21.5C 99.8369,27.5183 101.337,33.8516 101.5,40.5 Z"/></g>
<g><path style="opacity:1" fill="#434138" d="M 87.5,35.5 C 89.3268,37.5611 91.6601,38.8944 94.5,39.5C 93.467,40.452 92.3004,40.452 91,39.5C 89.7425,39.8499 89.4092,40.5165 90,41.5C 92.7255,42.642 95.2255,44.142 97.5,46C 95.7445,46.1405 94.0778,45.6405 92.5,44.5C 91.7025,44.9569 91.3691,45.6236 91.5,46.5C 85.4355,41.7691 80.4355,36.1024 76.5,29.5C 76.9569,28.7025 77.6236,28.3691 78.5,28.5C 79.2216,28.0825 79.7216,27.4158 80,26.5C 80.8525,28.1247 81.8525,28.4581 83,27.5C 84.6169,28.5358 84.7836,29.7025 83.5,31C 85.0703,32.3968 86.4036,33.8968 87.5,35.5 Z"/></g>
<g><path style="opacity:1" fill="#796f47" d="M 15.5,32.5 C 17.6602,31.2661 19.8269,29.9328 22,28.5C 22.6667,29.8333 23.3333,29.8333 24,28.5C 26.184,31.3345 25.684,32.6678 22.5,32.5C 22.0761,35.354 21.0761,38.0207 19.5,40.5C 20.1449,41.646 20.9783,42.646 22,43.5C 22.6667,44.5 22.6667,45.5 22,46.5C 21.0192,43.3113 19.6859,42.978 18,45.5C 17.6824,43.9391 16.8491,42.7724 15.5,42C 18.9019,39.3699 20.9019,35.8699 21.5,31.5C 19.5,31.8333 17.5,32.1667 15.5,32.5 Z"/></g>
<g><path style="opacity:1" fill="#8d7f43" d="M 15.5,32.5 C 14.4382,34.7565 12.7715,35.9232 10.5,36C 10.6046,33.5376 12.2713,32.3709 15.5,32.5 Z"/></g>
<g><path style="opacity:1" fill="#7e754e" d="M 29.5,38.5 C 32.2513,39.7026 32.7513,41.3692 31,43.5C 29.9914,41.9751 29.4914,40.3084 29.5,38.5 Z"/></g>
<g><path style="opacity:1" fill="#e9c921" d="M 101.5,40.5 C 102.659,43.577 102.325,46.577 100.5,49.5C 102.285,53.0055 103.118,56.6722 103,60.5C 101.667,57.1667 100.333,53.8333 99,50.5C 95.995,49.9729 93.495,48.6395 91.5,46.5C 91.3691,45.6236 91.7025,44.9569 92.5,44.5C 94.0778,45.6405 95.7445,46.1405 97.5,46C 95.2255,44.142 92.7255,42.642 90,41.5C 89.4092,40.5165 89.7425,39.8499 91,39.5C 92.3004,40.452 93.467,40.452 94.5,39.5C 91.6601,38.8944 89.3268,37.5611 87.5,35.5C 89.0133,34.6907 90.6799,34.5241 92.5,35C 91.0506,33.883 89.3839,33.2163 87.5,33C 85.0426,31.4877 85.0426,30.1544 87.5,29C 84.7495,27.9152 83.0828,25.9152 82.5,23C 82.9554,20.8047 83.2887,18.638 83.5,16.5C 86.7464,18.8589 89.4131,21.6922 91.5,25C 90.086,29.6965 90.586,30.1965 93,26.5C 93.3333,28.8333 93.6667,31.1667 94,33.5C 94.3076,32.6919 94.8076,32.0253 95.5,31.5C 96.3078,33.4233 96.8078,35.4233 97,37.5C 97.414,37.0426 97.914,36.7093 98.5,36.5C 99.2978,38.0777 99.7978,39.7444 100,41.5C 100.383,40.944 100.883,40.6107 101.5,40.5 Z"/></g>
<g><path style="opacity:1" fill="#f4d106" d="M 68.5,94.5 C 67.9478,96.3307 67.9478,97.9974 68.5,99.5C 73.5416,95.577 78.8749,94.9104 84.5,97.5C 85.1103,99.4341 86.1103,101.101 87.5,102.5C 80.0626,111.891 70.396,117.725 58.5,120C 54.996,118.746 51.6626,117.246 48.5,115.5C 42.7968,111.548 37.2968,107.215 32,102.5C 31.5099,100.455 31.6765,98.4546 32.5,96.5C 38.5704,92.0569 44.0704,92.7236 49,98.5C 49.4396,96.1341 49.9396,93.8008 50.5,91.5C 52.1563,89.5398 53.823,87.5398 55.5,85.5C 57.4546,84.6765 59.4546,84.5099 61.5,85C 64.465,87.7901 66.7984,90.9567 68.5,94.5 Z"/></g>
<g><path style="opacity:1" fill="#5c5847" d="M 68.5,94.5 C 66.7984,90.9567 64.465,87.7901 61.5,85C 59.4546,84.5099 57.4546,84.6765 55.5,85.5C 55.6107,84.8826 55.944,84.3826 56.5,84C 63.6316,83.6173 67.6316,87.1173 68.5,94.5 Z"/></g>
<g><path style="opacity:1" fill="#524f41" d="M 50.5,91.5 C 49.9396,93.8008 49.4396,96.1341 49,98.5C 44.0704,92.7236 38.5704,92.0569 32.5,96.5C 32.4142,95.5041 32.7476,94.6708 33.5,94C 38.2578,90.6471 42.9244,90.8138 47.5,94.5C 48.2876,93.2299 49.2876,92.2299 50.5,91.5 Z"/></g>
<g><path style="opacity:1" fill="#625d4d" d="M 68.5,94.5 C 69.1556,95.2778 69.9889,95.9444 71,96.5C 74.3595,94.8562 77.8595,94.3562 81.5,95C 82.9423,95.3768 83.9423,96.2101 84.5,97.5C 78.8749,94.9104 73.5416,95.577 68.5,99.5C 67.9478,97.9974 67.9478,96.3307 68.5,94.5 Z"/></g>
<g><path style="opacity:1" fill="#a8a79f" d="M 26.5,101.5 C 28.0269,101.427 29.0269,102.094 29.5,103.5C 27.9731,103.573 26.9731,102.906 26.5,101.5 Z"/></g>
<g><path style="opacity:1" fill="#b8b6a9" d="M 37.5,110.5 C 39.0269,110.427 40.0269,111.094 40.5,112.5C 38.9731,112.573 37.9731,111.906 37.5,110.5 Z"/></g>
<g><path style="opacity:1" fill="#a7a59b" d="M 40.5,112.5 C 42.0269,112.427 43.0269,113.094 43.5,114.5C 41.9731,114.573 40.9731,113.906 40.5,112.5 Z"/></g>
<g><path style="opacity:1" fill="#444341" d="M 107.5,78.5 C 107.5,79.1667 107.833,79.5 108.5,79.5C 98.7103,99.9563 83.3769,114.623 62.5,123.5C 61.5,123.5 60.5,123.5 59.5,123.5C 54.5398,121.353 49.8731,118.686 45.5,115.5C 46.5,115.5 47.5,115.5 48.5,115.5C 51.6626,117.246 54.996,118.746 58.5,120C 70.396,117.725 80.0626,111.891 87.5,102.5C 88.1174,102.611 88.6174,102.944 89,103.5C 96.1871,95.8285 102.354,87.4952 107.5,78.5 Z"/></g>
</svg>

<svg xmlns="http://www.w3.org/2000/svg" width="120" height="124" style="shape-rendering:geometricPrecision;text-rendering:geometricPrecision;image-rendering:optimizeQuality;fill-rule:evenodd;clip-rule:evenodd"><path style="opacity:1" fill="#bfbebe" d="M.5-.5h119v32h-1c.233-10.365-.1-20.698-1-31h-58v3h-1v-3h-57c.302 2.56-.032 4.893-1 7v-8z"/><path style="opacity:1" fill="#111110" d="M58.5 3.5c-1.597 18.29-7.097 35.29-16.5 51-5.973 8.31-13.473 14.81-22.5 19.5a20.088 20.088 0 0 1-6 1.5c2.345 6.877 5.845 13.21 10.5 19a38.9 38.9 0 0 0 5.5 5c.788-1.27 1.788-2.27 3-3-.823 1.955-.99 3.955-.5 6a173.023 173.023 0 0 0 16.5 13h-3c-.992.172-1.658-.162-2-1-.473-1.406-1.473-2.073-3-2-.473-1.406-1.473-2.073-3-2-3.284-1.617-5.95-3.95-8-7-.473-1.406-1.473-2.073-3-2C9.692 82.755.692 60.755-.5 35.5v-24c.934-1.068 1.268-2.401 1-4 .968-2.107 1.302-4.44 1-7h57v3z"/><path style="opacity:1" fill="#070606" d="M118.5 31.5c.114 16.765-3.219 32.765-10 48-.667 0-1-.333-1-1v-3c-14.824-4.311-25.991-13.311-33.5-27-7.546-14.138-12.38-29.138-14.5-45v-3h58a282.872 282.872 0 0 1 1 31z"/><path style="opacity:1" fill="#e7e7e7" d="M58.5 3.5h1c2.12 15.862 6.954 30.862 14.5 45 7.509 13.689 18.676 22.689 33.5 27v3c-5.146 8.995-11.313 17.329-18.5 25-.383-.556-.883-.889-1.5-1-1.39-1.399-2.39-3.066-3-5-.558-1.29-1.558-2.123-3-2.5-3.64-.644-7.14-.144-10.5 1.5-1.011-.556-1.844-1.222-2.5-2-.868-7.383-4.868-10.883-12-10.5-.556.383-.89.883-1 1.5a579.993 579.993 0 0 1-5 6c-1.212.73-2.212 1.73-3 3-4.576-3.686-9.242-3.853-14-.5-.752.67-1.086 1.504-1 2.5-1.212.73-2.212 1.73-3 3a38.9 38.9 0 0 1-5.5-5c-4.655-5.79-8.155-12.123-10.5-19a20.088 20.088 0 0 0 6-1.5c9.027-4.69 16.527-11.19 22.5-19.5 9.403-15.71 14.903-32.71 16.5-51z"/><path style="opacity:1" fill="#969585" d="M78.5 9.5c-1.585-.502-2.085-1.502-1.5-3 1.039.744 1.539 1.744 1.5 3z"/><path style="opacity:1" fill="#eccb19" d="M39.5 7.5c1.528.017 2.028.684 1.5 2a18.685 18.685 0 0 0-6.5 6c3.774-.328 4.608 1.34 2.5 5-4.105-4.303-6.938-3.47-8.5 2.5.13 1.059.63 1.892 1.5 2.5a18.941 18.941 0 0 0 3-5c2.537 2.546 5.537 4.212 9 5 .91 5.159.41 10.158-1.5 15l-1.5 1a19.955 19.955 0 0 1-4.5-3l-1 1.5 2 4c-1.825 2.493-4.158 4.327-7 5.5-3.767-3.15-5.6-2.15-5.5 3a30.323 30.323 0 0 0-8 5c-4.178-4.625-5.011-9.625-2.5-15-1.901-.73-3.901-.73-6 0a28.818 28.818 0 0 1 1-10 32.45 32.45 0 0 0 6-2.5c-1.063-1.188-2.397-1.688-4-1.5 1.054-4.938 3.721-8.771 8-11.5 5.897-1.804 8.73.363 8.5 6.5a17.343 17.343 0 0 0 3.5-7c-1.345-1.823-1.845-3.823-1.5-6 .414-.457.914-.79 1.5-1a14.73 14.73 0 0 1 1.5 5 89.8 89.8 0 0 0 8.5-7z"/><path style="opacity:1" fill="#737062" d="M101.5 40.5c-.617.11-1.117.444-1.5 1a14.73 14.73 0 0 0-1.5-5 3.646 3.646 0 0 0-1.5 1 20.216 20.216 0 0 0-1.5-6 4.452 4.452 0 0 0-1.5 2l-1-7c-2.414 3.697-2.914 3.197-1.5-1.5-2.087-3.308-4.754-6.141-8-8.5a62.03 62.03 0 0 1-1 6.5c.583 2.915 2.25 4.915 5 6-2.457 1.154-2.457 2.488 0 4 1.884.216 3.55.883 5 2-1.82-.476-3.487-.31-5 .5-1.096-1.603-2.43-3.103-4-4.5 1.284-1.297 1.117-2.464-.5-3.5-1.147.958-2.147.625-3-1-.278.916-.778 1.582-1.5 2l-2-4c.42-4.42.42-8.586 0-12.5l.5-1.5 4 8 .5-2a32.66 32.66 0 0 1-3-7c1.325 1.453 2.158 1.12 2.5-1a66.305 66.305 0 0 0 8 8l1-1c2.39 1.767 4.057 4.1 5 7 .317-1.8.984-2.134 2-1a46.775 46.775 0 0 1 4.5 19z"/><path style="opacity:1" fill="#434138" d="M87.5 35.5c1.827 2.061 4.16 3.394 7 4-1.033.952-2.2.952-3.5 0-1.257.35-1.59 1.017-1 2a30.3 30.3 0 0 1 7.5 4.5c-1.755.14-3.422-.36-5-1.5-.797.457-1.13 1.124-1 2a60.974 60.974 0 0 1-15-17c.457-.797 1.124-1.13 2-1 .722-.418 1.222-1.084 1.5-2 .853 1.625 1.853 1.958 3 1 1.617 1.036 1.784 2.203.5 3.5 1.57 1.397 2.904 2.897 4 4.5z"/><path style="opacity:1" fill="#796f47" d="M15.5 32.5a119.404 119.404 0 0 0 6.5-4c.667 1.333 1.333 1.333 2 0 2.184 2.834 1.684 4.168-1.5 4-.424 2.854-1.424 5.52-3 8a10.76 10.76 0 0 0 2.5 3c.667 1 .667 2 0 3-.98-3.189-2.314-3.522-4-1-.318-1.56-1.15-2.728-2.5-3.5 3.402-2.63 5.402-6.13 6-10.5l-6 1z"/><path style="opacity:1" fill="#8d7f43" d="M15.5 32.5c-1.062 2.257-2.729 3.423-5 3.5.105-2.462 1.771-3.63 5-3.5z"/><path style="opacity:1" fill="#7e754e" d="M29.5 38.5c2.751 1.203 3.251 2.87 1.5 5-1.009-1.525-1.509-3.192-1.5-5z"/><path style="opacity:1" fill="#e9c921" d="M101.5 40.5c1.159 3.077.825 6.077-1 9 1.785 3.505 2.618 7.172 2.5 11l-4-10c-3.005-.527-5.505-1.86-7.5-4-.13-.876.203-1.543 1-2 1.578 1.14 3.245 1.64 5 1.5a30.3 30.3 0 0 0-7.5-4.5c-.59-.983-.257-1.65 1-2 1.3.952 2.467.952 3.5 0-2.84-.606-5.173-1.939-7-4 1.513-.81 3.18-.976 5-.5-1.45-1.117-3.116-1.784-5-2-2.457-1.512-2.457-2.846 0-4-2.75-1.085-4.417-3.085-5-6a62.03 62.03 0 0 0 1-6.5c3.246 2.359 5.913 5.192 8 8.5-1.414 4.697-.914 5.197 1.5 1.5l1 7a4.452 4.452 0 0 1 1.5-2 20.216 20.216 0 0 1 1.5 6c.414-.457.914-.79 1.5-1a14.73 14.73 0 0 1 1.5 5c.383-.556.883-.89 1.5-1z"/><path style="opacity:1" fill="#f4d106" d="M68.5 94.5c-.552 1.83-.552 3.497 0 5 5.042-3.923 10.375-4.59 16-2 .61 1.934 1.61 3.601 3 5-7.437 9.391-17.104 15.225-29 17.5a68.187 68.187 0 0 1-10-4.5 173.023 173.023 0 0 1-16.5-13c-.49-2.045-.323-4.045.5-6 6.07-4.443 11.57-3.776 16.5 2 .44-2.366.94-4.7 1.5-7 1.656-1.96 3.323-3.96 5-6 1.955-.823 3.955-.99 6-.5 2.965 2.79 5.298 5.957 7 9.5z"/><path style="opacity:1" fill="#5c5847" d="M68.5 94.5c-1.702-3.543-4.035-6.71-7-9.5-2.045-.49-4.045-.323-6 .5.11-.617.444-1.117 1-1.5 7.132-.383 11.132 3.117 12 10.5z"/><path style="opacity:1" fill="#524f41" d="M50.5 91.5c-.56 2.3-1.06 4.634-1.5 7-4.93-5.776-10.43-6.443-16.5-2-.086-.996.248-1.83 1-2.5 4.758-3.353 9.424-3.186 14 .5.788-1.27 1.788-2.27 3-3z"/><path style="opacity:1" fill="#625d4d" d="M68.5 94.5c.656.778 1.489 1.444 2.5 2 3.36-1.644 6.86-2.144 10.5-1.5 1.442.377 2.442 1.21 3 2.5-5.625-2.59-10.958-1.923-16 2-.552-1.503-.552-3.17 0-5z"/><path style="opacity:1" fill="#a8a79f" d="M26.5 101.5c1.527-.073 2.527.594 3 2-1.527.073-2.527-.594-3-2z"/><path style="opacity:1" fill="#b8b6a9" d="M37.5 110.5c1.527-.073 2.527.594 3 2-1.527.073-2.527-.594-3-2z"/><path style="opacity:1" fill="#a7a59b" d="M40.5 112.5c1.527-.073 2.527.594 3 2-1.527.073-2.527-.594-3-2z"/><path style="opacity:1" fill="#444341" d="M107.5 78.5c0 .667.333 1 1 1-9.79 20.456-25.123 35.123-46 44h-3a72.846 72.846 0 0 1-14-8h3a68.187 68.187 0 0 0 10 4.5c11.896-2.275 21.563-8.109 29-17.5.617.111 1.117.444 1.5 1 7.187-7.671 13.354-16.005 18.5-25z"/></svg>
